server/website/public/icons/base/money.svg

<svg width="48" height="48" viewBox="0 0 48 48" fill="none" xmlns="http://www.w3.org/2000/svg">
<g clip-path="url(#clip0_1387_16687)">
<path d="M40.2727 40.1932L41.4659 45.6136C41.5341 45.8864 41.5 46.142 41.3636 46.3807C41.2273 46.6193 41.0341 46.7841 40.7841 46.875L40.6136 46.9091C40.5227 46.9545 40.4034 46.9943 40.2557 47.0284C40.108 47.0625 39.9261 47.1136 39.7102 47.1818C39.4943 47.25 39.25 47.3125 38.9773 47.3693C38.7045 47.4261 38.4148 47.483 38.108 47.5398C37.8011 47.5966 37.4602 47.6534 37.0852 47.7102C36.7102 47.767 36.3295 47.8182 35.9432 47.8636C35.5568 47.9091 35.142 47.9432 34.6989 47.9659C34.2557 47.9886 33.8182 48 33.3864 48C28.0682 48 23.4205 46.517 19.4432 43.5511C15.4659 40.5852 12.7614 36.5909 11.3295 31.5682H8.09091C7.79545 31.5682 7.53977 31.4602 7.32386 31.2443C7.10795 31.0284 7 30.7727 7 30.4773V26.625C7 26.3295 7.10795 26.0739 7.32386 25.858C7.53977 25.642 7.79545 25.5341 8.09091 25.5341H10.3409C10.2955 24.2386 10.3068 23.0455 10.375 21.9545H8.09091C7.77273 21.9545 7.51136 21.8523 7.30682 21.6477C7.10227 21.4432 7 21.1818 7 20.8636V16.9773C7 16.6591 7.10227 16.3977 7.30682 16.1932C7.51136 15.9886 7.77273 15.8864 8.09091 15.8864H11.4318C12.9545 11.1136 15.7216 7.27273 19.733 4.36364C23.7443 1.45455 28.2955 0 33.3864 0C35.7045 0 37.9091 0.261364 40 0.784091C40.25 0.852273 40.4773 1.02273 40.6818 1.29545C40.8182 1.54545 40.8523 1.81818 40.7841 2.11364L39.3182 7.53409C39.25 7.82955 39.0909 8.05114 38.8409 8.19886C38.5909 8.34659 38.3182 8.375 38.0227 8.28409L37.8864 8.25C37.7955 8.22727 37.6648 8.19886 37.4943 8.16477L36.8977 8.04545L36.1307 7.92614L35.2443 7.82386L34.2557 7.73864L33.25 7.70455C30.3864 7.70455 27.8182 8.43182 25.5455 9.88636C23.2727 11.3409 21.5682 13.3409 20.4318 15.8864H36.3864C36.75 15.8864 37.0341 16.0227 37.2386 16.2955C37.4659 16.5682 37.5455 16.8636 37.4773 17.1818L36.6591 21.0682C36.5455 21.6591 36.1818 21.9545 35.5682 21.9545H18.9318C18.8636 22.7955 18.8636 23.9886 18.9318 25.5341H34.5795C34.9205 25.5341 35.2045 25.6705 35.4318 25.9432C35.6364 26.2159 35.7045 26.5227 35.6364 26.8636L34.8182 30.6818C34.7727 30.9318 34.6477 31.142 34.4432 31.3125C34.2386 31.483 34.0114 31.5682 33.7614 31.5682H20.5682C21.6591 34.2273 23.358 36.3352 25.6648 37.892C27.9716 39.4489 30.5682 40.2273 33.4545 40.2273C33.8636 40.2273 34.2727 40.2102 34.6818 40.1761C35.0909 40.142 35.4716 40.1023 35.8239 40.0568C36.1761 40.0114 36.5114 39.9602 36.8295 39.9034C37.1477 39.8466 37.4261 39.7898 37.6648 39.733C37.9034 39.6761 38.1136 39.625 38.2955 39.5795L38.7045 39.4773L38.875 39.4091C39.1705 39.2955 39.4659 39.3182 39.7614 39.4773C40.0341 39.6364 40.2045 39.875 40.2727 40.1932Z" fill="black"/>
</g>
<defs>
<clipPath id="clip0_1387_16687">
<rect width="34.91" height="48" fill="white" transform="translate(7)"/>
</clipPath>
</defs>
</svg>

<svg width="48" height="48" fill="none" xmlns="http://www.w3.org/2000/svg"><g clip-path="url(#prefix__clip0_1387_16687)"><path d="M40.273 40.193l1.193 5.42c.068.273.034.529-.102.768-.137.238-.33.403-.58.494l-.17.034c-.091.046-.21.085-.358.12a7.38 7.38 0 00-.546.153c-.216.068-.46.13-.733.187a31.95 31.95 0 01-1.892.34c-.375.058-.755.11-1.142.155-.386.045-.801.08-1.244.102-.443.023-.88.034-1.313.034-5.318 0-9.966-1.483-13.943-4.449-3.977-2.966-6.682-6.96-8.114-11.983H8.091c-.296 0-.551-.108-.767-.324A1.048 1.048 0 017 30.477v-3.852c0-.296.108-.551.324-.767.216-.216.471-.324.767-.324h2.25a36.924 36.924 0 01.034-3.58H8.091c-.318 0-.58-.102-.784-.306A1.062 1.062 0 017 20.864v-3.887c0-.318.102-.58.307-.784.204-.204.466-.307.784-.307h3.34c1.524-4.772 4.29-8.613 8.302-11.522C23.744 1.454 28.296 0 33.386 0 35.705 0 37.91.261 40 .784c.25.068.477.239.682.511.136.25.17.523.102.819l-1.466 5.42a.998.998 0 01-.477.665.977.977 0 01-.818.085l-.137-.034a9.036 9.036 0 00-.392-.085l-.596-.12-.767-.119-.887-.102-.988-.085-1.006-.034c-2.864 0-5.432.727-7.704 2.181-2.273 1.455-3.978 3.455-5.114 6h15.954c.364 0 .648.137.853.41.227.272.306.568.238.886l-.818 3.886c-.114.591-.477.886-1.09.886H18.931c-.068.841-.068 2.035 0 3.58H34.58c.34 0 .625.137.852.41.204.272.273.579.204.92l-.818 3.818c-.045.25-.17.46-.375.63a1.04 1.04 0 01-.682.256H20.568c1.091 2.66 2.79 4.767 5.097 6.324 2.307 1.557 4.903 2.335 7.79 2.335.409 0 .818-.017 1.227-.05.409-.035.79-.075 1.142-.12.352-.046.687-.097 1.006-.154.318-.056.596-.113.835-.17.238-.057.449-.108.63-.153l.41-.103.17-.068a1.045 1.045 0 011.398.784z" fill="#000"/></g><defs><clipPath id="prefix__clip0_1387_16687"><path fill="#fff" transform="translate(7)" d="M0 0h34.91v48H0z"/></clipPath></defs></svg>
